src/assets/svg/ic_contact_id.svg

<svg xmlns="http://www.w3.org/2000/svg" width="16" height="16">
    <path d="M15 2H2c-.553 0-1 .385-1 .938v9C1 12.49 1.447 13 2 13h12.999c.553 0 1.001-.51 1.001-1.062V3a1 1 0 00-1-1zM5 5.226V5.22c0-.822.764-1.47 1.654-1.47h.12c.888 0 1.726.648 1.726 1.469v.006c0 .013.008.029.015.045.042.079.165.179.165.254 0 .468-.084.875-.238.924-.13.041-.156.67-.481 1.114-.256.348-.621.785-1.034.852a1.615 1.615 0 01-.212.007 1.58 1.58 0 01-.211-.007c-.413-.067-.775-.504-1.029-.852-.325-.444-.342-1.073-.471-1.114-.154-.049-.221-.456-.221-.924 0-.09.217-.216.217-.298zM2.344 12c.063-.75.211-1.342.612-1.731.22-.213 1.441-.493 2.31-1.131.168-.138.337-.574.337-.574l1.074.736 1.074-.74s.169.427.336.563c.869.638 2.089.933 2.31 1.146.402.39.549.981.613 1.731H2.344zM15 7h-4V6h4v1zm0-2h-4V4h4v1z"/>
</svg>

<?xml version="1.0" encoding="utf-8"?>
<!-- Generator: Adobe Illustrator 16.0.4, SVG Export Plug-In . SVG Version: 6.00 Build 0)  -->
<!DOCTYPE svg PUBLIC "-//W3C//DTD SVG 1.1//EN" "http://www.w3.org/Graphics/SVG/1.1/DTD/svg11.dtd">
<svg version="1.1" id="artwork" xmlns="http://www.w3.org/2000/svg" xmlns:xlink="http://www.w3.org/1999/xlink" x="0px" y="0px"
	 width="16px" height="16px" viewBox="0 0 16 16" enable-background="new 0 0 16 16" xml:space="preserve">
<path d="M15,2C15,2,15,2,15,2H2C1.447,2,1,2.385,1,2.938v9C1,12.49,1.447,13,2,13h10.002h2.997
	C15.552,13,16,12.49,16,11.938v-0.156V3.016V3C16,2.448,15.553,2,15,2z M5,5.226c0-0.002,0-0.005,0-0.006
	C5,4.398,5.764,3.75,6.654,3.75c0,0,0,0,0.004,0c0.008,0,0.015,0,0.019,0c0.005,0,0.011,0,0.017,0c0,0,0.002,0,0.004,0h0.001
	c0.005,0,0.01,0,0.015,0s0.01,0,0.015,0h0.001c0.002,0,0.004,0,0.004,0c0.006,0,0.012,0,0.017,0c0.004,0,0.011,0,0.019,0
	c0.004,0,0.004,0,0.004,0C7.662,3.75,8.5,4.398,8.5,5.219c0,0.001,0,0.003,0,0.006c0,0.013,0.008,0.029,0.015,0.045
	C8.557,5.349,8.68,5.449,8.68,5.524c0,0.468-0.084,0.875-0.238,0.924c-0.13,0.041-0.156,0.67-0.481,1.114
	C7.705,7.91,7.34,8.347,6.927,8.414C6.898,8.42,6.802,8.422,6.715,8.421C6.628,8.422,6.531,8.42,6.504,8.414
	C6.091,8.347,5.729,7.91,5.475,7.562C5.15,7.118,5.133,6.489,5.004,6.448C4.85,6.399,4.783,5.992,4.783,5.524
	C4.783,5.434,5,5.308,5,5.226z M2.344,12c0.063-0.75,0.211-1.342,0.612-1.731c0.22-0.213,1.441-0.493,2.31-1.131
	C5.434,9,5.603,8.564,5.603,8.564l1.074,0.736L7.751,8.56c0,0,0.169,0.427,0.336,0.563c0.869,0.638,2.089,0.933,2.31,1.146
	c0.402,0.39,0.549,0.981,0.613,1.731H2.344z M15,7h-4V6h4V7z M15,5h-4V4h4V5z"/>
</svg>
